src/assets/images/prototype/produits-armoire/2-adoucissant.svg

<svg width="283" height="663" viewBox="0 0 283 663" fill="none" xmlns="http://www.w3.org/2000/svg">
<path d="M10.0834 339.5C-2.71658 447.5 27.4168 591.5 44.0834 650C132.083 660.4 208.75 654.333 236.084 650C250.25 576.833 277.984 414.9 275.584 352.5C273.184 290.1 219.917 180.167 193.584 133H89.0835C68.0835 156.833 22.8834 231.5 10.0834 339.5Z" fill="white"/>
<path d="M44.0834 650L37.8322 651.781C38.5509 654.304 40.7155 656.147 43.3205 656.455L44.0834 650ZM236.084 650L237.101 656.42C239.802 655.992 241.945 653.92 242.465 651.236L236.084 650ZM193.584 133L199.259 129.831C198.111 127.775 195.939 126.5 193.584 126.5V133ZM89.0835 133V126.5C87.217 126.5 85.4405 127.302 84.2066 128.703L89.0835 133ZM3.6286 338.735C-9.32591 448.039 21.0981 593.045 37.8322 651.781L50.3347 648.219C33.7354 589.955 3.89276 446.961 16.5382 340.265L3.6286 338.735ZM43.3205 656.455C131.937 666.928 209.203 660.843 237.101 656.42L235.066 643.58C208.297 647.824 132.23 653.872 44.8463 643.545L43.3205 656.455ZM242.465 651.236C249.563 614.575 260.056 555.7 268.478 498.154C276.868 440.815 283.305 384.145 282.079 352.25L269.088 352.75C270.262 383.255 264.032 438.752 255.615 496.271C247.227 553.583 236.77 612.258 229.702 648.764L242.465 651.236ZM282.079 352.25C280.831 319.805 266.499 275.794 249.571 234.569C232.551 193.117 212.533 153.608 199.259 129.831L187.908 136.169C200.967 159.559 220.749 198.6 237.546 239.506C254.435 280.639 267.936 322.795 269.088 352.75L282.079 352.25ZM193.584 126.5H89.0835V139.5H193.584V126.5ZM84.2066 128.703C62.3094 153.554 16.5794 229.463 3.6286 338.735L16.5382 340.265C29.1874 233.537 73.8575 160.112 93.9604 137.297L84.2066 128.703Z" fill="#81EC40"/>
<path d="M102.586 52.5C100.186 62.9 93.5859 110.5 90.5859 133H143.586H193.586C189.086 112 180.086 66.5 180.086 52.5V14.5C173.753 12 157.586 7 143.586 7C129.586 7 110.419 12 102.586 14.5C103.586 22.8333 104.986 42.1 102.586 52.5Z" fill="white" stroke="#81EC40" stroke-width="13" stroke-linejoin="round"/>
</svg>

<svg width="283" height="663" fill="none" xmlns="http://www.w3.org/2000/svg"><path d="M10.083 339.5c-12.8 108 17.334 252 34 310.5 88 10.4 164.667 4.333 192.001 0 14.166-73.167 41.9-235.1 39.5-297.5-2.4-62.4-55.667-172.333-82-219.5h-104.5c-21 23.833-66.2 98.5-79 206.5z" fill="#fff"/><path d="M44.083 650l-6.25 1.781a6.5 6.5 0 005.488 4.674l.762-6.455zm192.001 0l1.017 6.42a6.5 6.5 0 005.364-5.184L236.084 650zm-42.5-517l5.675-3.169a6.501 6.501 0 00-5.675-3.331v6.5zm-104.5 0v-6.5a6.498 6.498 0 00-4.877 2.203L89.084 133zM3.629 338.735c-12.955 109.304 17.47 254.31 34.203 313.046l12.503-3.562c-16.6-58.264-46.442-201.258-33.797-307.954l-12.91-1.53zm39.692 317.72c88.616 10.473 165.882 4.388 193.78-.035l-2.035-12.84c-26.769 4.244-102.836 10.292-190.22-.035l-1.525 12.91zm199.144-5.219c7.098-36.661 17.591-95.536 26.013-153.082 8.39-57.339 14.827-114.009 13.601-145.904l-12.991.5c1.174 30.505-5.056 86.002-13.473 143.521-8.388 57.312-18.845 115.987-25.913 152.493l12.763 2.472zm39.614-298.986c-1.248-32.445-15.58-76.456-32.508-117.681-17.02-41.452-37.038-80.961-50.312-104.738l-11.351 6.338c13.059 23.39 32.841 62.431 49.638 103.337 16.889 41.133 30.39 83.289 31.542 113.244l12.991-.5zM193.584 126.5h-104.5v13h104.5v-13zm-109.377 2.203c-21.898 24.851-67.628 100.76-80.578 210.032l12.91 1.53C29.186 233.537 73.857 160.112 93.96 137.297l-9.753-8.594z" fill="#81EC40"/><path d="M102.586 52.5c-2.4 10.4-9 58-12 80.5h103c-4.5-21-13.5-66.5-13.5-80.5v-38c-6.333-2.5-22.5-7.5-36.5-7.5s-33.167 5-41 7.5c1 8.333 2.4 27.6 0 38z" fill="#fff" stroke="#81EC40" stroke-width="13" stroke-linejoin="round"/></svg>
